symbols/web/drive_file_move_rtl/materialsymbolsoutlined/drive_file_move_rtl_wght500grad200_48px.svg

<svg xmlns="http://www.w3.org/2000/svg" height="48" width="48"><path d="m23.3 33.85 2.45-2.4-3.55-3.55h10.15v-3.5H22.2l3.5-3.5-2.4-2.4-7.7 7.7ZM7.05 41q-1.55 0-2.7-1.175Q3.2 38.65 3.2 37.15V10.6q0-1.5 1.15-2.675Q5.5 6.75 7.05 6.75h13.4l3.6 3.6h17q1.5 0 2.675 1.175Q44.9 12.7 44.9 14.2v22.95q0 1.5-1.175 2.675Q42.55 41 41.05 41Zm0-30.4v26.55h34V14.2h-18.6l-3.55-3.6H7.05Zm0 0v26.55Z"/></svg>

<svg xmlns="http://www.w3.org/2000/svg" height="48" width="48"><path d="M23.3 33.85 25.75 31.45 22.2 27.9H32.35V24.4H22.2L25.7 20.9L23.3 18.5L15.6 26.2ZM7.05 41Q5.5 41 4.35 39.825Q3.2 38.65 3.2 37.15V10.6Q3.2 9.1 4.35 7.925Q5.5 6.75 7.05 6.75H20.45L24.05 10.35H41.05Q42.55 10.35 43.725 11.525Q44.9 12.7 44.9 14.2V37.15Q44.9 38.65 43.725 39.825Q42.55 41 41.05 41ZM7.05 10.6V37.15Q7.05 37.15 7.05 37.15Q7.05 37.15 7.05 37.15H41.05Q41.05 37.15 41.05 37.15Q41.05 37.15 41.05 37.15V14.2Q41.05 14.2 41.05 14.2Q41.05 14.2 41.05 14.2H22.45L18.9 10.6H7.05Q7.05 10.6 7.05 10.6Q7.05 10.6 7.05 10.6ZM7.05 10.6Q7.05 10.6 7.05 10.6Q7.05 10.6 7.05 10.6V14.2Q7.05 14.2 7.05 14.2Q7.05 14.2 7.05 14.2V37.15Q7.05 37.15 7.05 37.15Q7.05 37.15 7.05 37.15Q7.05 37.15 7.05 37.15Q7.05 37.15 7.05 37.15Z"/></svg>
